X:1
T:Just as I Am, without One Plea
T:Text: Charlotte Elliott, 1836 Tune: William B. Bradbury, 1849
T:LM WOODWORTH www.hymnary.org/text/just_as_i_am_without_one_plea
T:Just as I Am, without One Plea
T:This hymn is in the public domain. You may freely use this score for personal and congregational worship. If you reproduce the score, please credit Hymnary.org as the source. 
T:This hymn is in the public domain. You may freely use this score for personal and congregational worship. If you reproduce the score, please credit Hymnary.org as the source. 
Z:This hymn is in the public domain. You may freely use this score for personal and congregational worship. If you reproduce the score, please credit Hymnary.org as the source.
%%score ( 1 2 ) ( 3 4 )
L:1/8
M:6/4
K:Eb
V:1 treble nm="SOPRANO ALTO" snm="S. A."
V:2 treble 
V:3 bass nm="TENOR BASS" snm="T. B."
V:4 bass 
V:1
"^Capo 1:""^1""^2""^3""^4" EF |"^Eb(D)" G4 G2 (B3 A) G2 |"^Bb(A)" (F3 G) A2"^Eb(D)" G4 B2 | %3
w: Just *|as I am, * with-|out * one plea, but|
w: Just *|as I am, * and|wait- * ing not to|
w: Just *|as I am, * though|tossed * a- bout with|
w: Just *|as I am, * thou|wilt * re- ceive, wilt|
"^Bb(A)" (B2 F2) G2"^Bb7(A7)" A4 c2 |"^Ab/Eb(G/D)" c4"^Eb(D)" B2 G4 EF | G4 G2 (B3 A) G2 |1 %6
w: that * thy blood was|shed for me, and *|that thou bidd'st * me|
w: rid * my soul of|one dark blot, to *|thee, whose blood * can|
w: man- * y\_a con- flict,|man- y\_a doubt, fight- *|ings and fears * with-|
w: wel- * come, par- don,|cleanse, re- lieve; be- *|cause thy prom- * ise|
"^Ab(G)" c4 c2 (e3 d) c2 |"^Eb(D)" B4 B2 (B3 A) G2 |"^Bb(A)" F6 B6 |"^Eb(D)" G6- G4 x2 |] %10
w: come to thee, * O|Lamb of God, * I|come, I|come. *|
w: cleanse each spot, * O|Lamb of God, * I|come, I|come. *|
w: in, with- out, * O|Lamb of God, * I|come, I|come. *|
w: I be- lieve, * O|Lamb of God, * I|come, I|come. *|
V:2
 E2 | E4 E2 (G3 F) E2 | (D3 E) F2 E4 G2 | F4 E2 F4 A2 | A4 G2 E4 E2 | E4 E2 (G3 F) E2 |1 %6
 A4 A2 A4 A2 | G4 G2 (G3 F) E2 | D6 D6 | E6- E4 x2 |] %10
V:3
 G,A, | B,4 B,2 B,4 B,2 | B,4 B,2 B,4 E2 | D4 B,2 B,4 D2 | E4 E2 B,4 G,A, | B,4 B,2 B,4 E2 |1 %6
 E4 E2 (C3 D) E2 | E4 E2 B,4 B,2 | B,6 B,6 | B,6- B,4 x2 |] %10
V:4
 E,2 | E,4 E,2 E,4 E,2 | B,,4 B,,2 E,4 E,2 | B,4 B,2 B,4 B,,2 | E,4 E,2 E,4 E,2 | %5
 E,4 E,2 (E,3 F,) G,2 |1 A,4 A,2 A,4 A,2 | E,4 E,2 E,4 E,2 | B,6 B,,6 | E,6- E,4 x2 |] %10

